!!!OTL: Trostlied.
!!!ARE: Europa, Mitteleuropa, Deutschland
!!!SCT: A0637
!!!TXL: @@DE
!!!YEM: Copyright 1995, estate of Helmut Schaffrath.
**kern	**text
*M4/1	*
*met(c|)	*
*clefC4	*
*k[]	*
*E:phr	*
=1	=1
!LO:TX:a:t=phryg. mit aeol. Schluß.	!
{0E	Mag
1G	ich
1G	vn-
=2	=2
1A	-glück
1c	nit
1B	wi-
1B	-der-
=3	=3
0A	-ſtan,
1r	.
1e	doch
=4	=4
1d	hoffnung
1c	.
0B	han,
=5	=5
1r}	.
{1c	es
1B	ſol
1A	nit
=6	=6
1G	al-
*lig	*
2.E	-ʒeit
4F	.
*Xlig	*
*lig	*
2G	we-
2A/	.
1F	.
*Xlig	*
=7	=7
!LO:TX:a:t=P:unmatching rhythm:problem	!
00}E	-ren,}
=8	=8
{0E	Man-
1G	-cher
1G	treibt
=9	=9
1A	jetʒ-
1c	-und
1B	groſ-
1B	-ſen
=10	=10
0A	pracht,
1r	.
1e	wirt
=11	=11
1d	hoch-
1c	-ge-
0B	-acht,
=12	=12
1r}	.
{1c	gſchicht
1B	alß
1A	mit
=13	=13
1G	klei-
*lig	*
2.E	-nen
4F	.
*Xlig	*
*lig	*
2G	e-
2A/	.
1F	.
*Xlig	*
=14	=14
0E	-ren,}
1r}	.
{1G	Wenn
=15	=15
*lig	*
2A	er
1c	.
*Xlig	*
2B	die
1c	gnad,
1e	von
=16	=16
1d	got
1d	nit
0c	hat,
=17	=17
1r}	.
{1e	das
1c	er
1c	ge-
=18	=18
1A	-decht,
1d	wʒ
1B	im
1B	ent-
=19	=19
0G	-precht,
1r	.
1G	all
=20	=20
1B	ding
1c	thun
1d	ſie
1A	ver-
=21	=21
0B	-ke-
0A\ll}	-ren.
==	==
!!!GTL: Geistliche Volkslieder
!!!AGN: Romanze, Ballade, Lied, religioeses Lied
!! Phryg. mit aeol. Schluss
!!    Forster I 1539 No. 102
!!!ONB: ESAC (Essen Associative Code) Database: ALTDEU
!!!AMT: simple quadruple
!!!AIN: vox
!!!EED: Helmut Schaffrath
!!!EEV: 1.0
!!!RDF**kern: l = terminal long
!!!AMD: Phrygian
!!!URL-scan: https://rosdok.uni-rostock.de/mcrviewer/recordIdentifier/rosdok_ppn738218359/iview2/phys_0819.iview2?x=105.19263581881364&y=310.0059463046491&scale=0.7106933083589261&rotation=0&layout=singlePageLayout&logicalDiv=log_0007
!!!ENC: Anna Maria Matuszewska
!!!EEV: 2024/25/03
*-	*-
